X: 121
T: Old Time Grey Eagle
B: canberra pickers and fiddlers
B: old time tunes update
B: tunes
M:2/4
L:1/8
R: Reel
Q: 1/4=100
K:C
V:1 
e/d/||e/d/e/d/ c/d/c/A/|G/E/G/E/ D/C/A,/C/|G,/A,/C/D/ E/G/A/G/|1 c/d/^d/e/ a/g/:|2 cd/B/ c||
c/d/||e/c/g/c/ a/c/g/c/|e/c/g/a/ g/e/c/d/|e/c/g/c/ a/c/g/c/|e/G/[Fd] [Ec]c/d/|
e/c/g/c/ a/c/g/c/|e/c/g/a/ g/e/c/d/|eg/e/ a/e/g/a/|c'/a/g/e/ c||
C/D/|EG/E/ A/E/G/F/|E/G/G/A/ G/E/C/D/|EG/E/ A/E/G/F/|E/C/D CC/D/|
EG/E/ A/E/G/F/|E/G/G/A/ G/E/C/D/|DG/E/ A/E/G/A/|c/A/G/E/ C||
% abcbook-tune_id 67a7d9ecdca8633853141577
% abcbook-tune_composer_id 
% abcbook-link-0 https://www.youtube.com/watch?v=QIhcXHhYo20
% abcbook-link-title-0 Old Time Grey Eagle
% abcbook-boost 0
% abcbook-difficulty 0
% abcbook-tags old time tunes
% abcbook-tablature 
% abcbook-transpose 
% abcbook-tuning GDAE
% abcbook-lastupdated 1739253481796
% abcbook-src-url 
% abcbook-soundfonts 
% abcbook-repeats 1


